X:261
T: Vicar of Taunton Dean.
C:John Malchair's Third Collection of Tunes
F:https://www.vwml.org/record/Malchair/3619/p26
F:www.vwml.org/topics/historic-dance-and-tune-books/Malchair
Z:Eric Conrad Jan 2020
N:NB1 The MS has no repeats.  They are assumed here.
M:6/4
L:1/4
K:Gm
P:A
|: "_NB1"D | G2A BAF | G2B cBA | GAB B2A | Gd2- d2 :|
P:B
|: d/e/ | f2e d2c | d2c B2A/G/ | ABc c2B | Bc2- c2c | 
d>ed c>BA | B>AG d3 | c>Bc c>BA | Gd2 A2G |
^FD2 BG2 | d3- d2d | c>Bc c>BA | Gd2- d2 :|

